X:1
T:Title
%%score { ( 1 3 ) | ( 2 4 ) }
L:1/8
Q:1/4=84
M:6/8
K:C
V:1 treble nm="Grand Piano"
V:3 treble 
V:2 bass 
V:4 bass 
V:1
 E_E=E G2 C | E3 D3 | FEF [B,G]2 [B,D] | [CE]6 | [DE][D_E][D=E] [Ec]2 [DB] | [DB]3 [CA]3 | %6
w: C.~Harold~Lowden * * * *||||||
 A^GA B2 [^Fc] | [Fd]6 | c3 z3 | A3 z3 | C3[K:bass] z3 | E6[K:treble] | c-[Ec-][Ec] B2 ^F | G3 z3 | %14
w: ||||||||
 [DGB][EGc][GB] [GA]2 [^Fd] | d6 | e3 z3 | c3 z3 | c3 z3 | .G6 | .E6 | .A6 | cEF G d2 | [Ec]6 |] %24
w: ||||||||||
V:2
 [C,G,C][C,^F,C][C,G,C] [E,G,C]2 [E,G,] | [F,A,C]3 [F,A,C]3 | %2
 [D,A,C][D,A,C][D,A,C] [G,,G,]2 [G,,G,] | [C,G,]6 | [B,,^G,][B,,G,][B,,G,] [E,G,]2 [E,G,] | %5
 [A,,E,]3 [A,,E,]3 | [D,^F,D][D,=F,D][D,^F,D] [D,G,D]2 [D,A,] | [G,,G,B,]6 | %8
 [C,G,][C,G,][C,G,] [E,C]3 | [F,CF][F,C][F,C] [C,C]3 | [A,,E,]A,,A,, G,,3 | %11
 [C,G,C][C,G,][C,G,] [C,G,]3 | [A,,A,][A,,A,][A,,A,] ^F,2 B, | [E,B,E][E,B,][E,B,] E,3 | %14
 D,D,[D,D] [D,D]2 [D,C] | [G,B,F]6 | [C,C][C,C][C,C] [E,B,E]2 [E,E] | [A,EA][A,E][A,E] [G,E]3 | %18
 [F,F][F,F][F,F] [F,CG]2 [A,CF] | [CE]CC C[K:bass]E,[G,B,] | %20
 [C,G,C][C,G,][C,G,] [C,G,][D,G,C][E,_B,C] | [F,A,C][F,A,][F,A,] [F,A,][^F,C_E][F,CE] | %22
 [G,CE][A,C][^G,CD] [=G,CE] [G,B,F]2 | [C,C]6 |] %24
V:3
 x6 | x6 | x6 | x6 | x6 | x6 | x6 | x6 | EEE [GB]2 G | z FF [EG]3 | z[K:bass] E,E, [G,B,D]3 | %11
 z C[K:treble]C C3 | .E3 _E3 | z EE [^CGA]3 | x6 | z GA Bcd | [EG][EG][EG] [^Gd]2 [GB] | %17
 z AA [_Bc]3 | AAA B2 A | z EE ECD | z CC CFG | z CC CBc | x6 | x6 |] %24
V:4
 x6 | x6 | x6 | x6 | x6 | x6 | x6 | x6 | x6 | x6 | x6 | x6 | z3 B,,3 | x6 | x6 | x6 | x6 | x6 | %18
 x6 | x4[K:bass] x2 | x6 | x6 | x6 | x6 |] %24

